X:198
T: Lingdangling, Suodangsuo
N: C1690
O: China, Jiangxi, Gaoan
S: IV, 259]
R: Xiaodiao, Bu wan]
M: 2/4
L: 1/16
K: G
e2d2e2d2 | e2g2eged | B2g2e2B2 | d4B2AB | d2B4z2
d2d4g2 | e3dB2A2 | G2E2z4
B2ABd2e2 | G2E2z2ed | B2deG2A6
B2ABE4 | G2G2A4
ddBdE2E2 | G2EGA4
B2ABd2e2 | G2E2z2ed | B2deG2A6

